icons/midnadark/devices/16/drive-harddisk.svg

<?xml version="1.0" encoding="UTF-8" standalone="no"?>
<!-- Created with Inkscape (http://www.inkscape.org/) -->

<svg
   xmlns:dc="http://purl.org/dc/elements/1.1/"
   xmlns:cc="http://creativecommons.org/ns#"
   xmlns:rdf="http://www.w3.org/1999/02/22-rdf-syntax-ns#"
   xmlns:svg="http://www.w3.org/2000/svg"
   xmlns="http://www.w3.org/2000/svg"
   xmlns:sodipodi="http://sodipodi.sourceforge.net/DTD/sodipodi-0.dtd"
   xmlns:inkscape="http://www.inkscape.org/namespaces/inkscape"
   width="16"
   height="16"
   id="svg2"
   version="1.1"
   inkscape:version="0.91 r13725"
   viewBox="0 0 16 16"
   sodipodi:docname="drive-harddisk.svg">
  <defs
     id="defs4" />
  <sodipodi:namedview
     id="base"
     pagecolor="#888888"
     bordercolor="#666666"
     borderopacity="1.0"
     inkscape:pageopacity="0"
     inkscape:pageshadow="2"
     inkscape:zoom="25.730404"
     inkscape:cx="7.9491752"
     inkscape:cy="9.6290958"
     inkscape:document-units="px"
     inkscape:current-layer="g4164"
     showgrid="false"
     inkscape:showpageshadow="false"
     borderlayer="true"
     units="px"
     inkscape:window-width="1366"
     inkscape:window-height="688"
     inkscape:window-x="0"
     inkscape:window-y="0"
     inkscape:window-maximized="1"
     showguides="false">
    <inkscape:grid
       type="xygrid"
       id="grid4062" />
    <sodipodi:guide
       position="2,14.000017"
       orientation="12,0"
       id="guide4066" />
    <sodipodi:guide
       position="2,2.0000174"
       orientation="0,12"
       id="guide4068" />
    <sodipodi:guide
       position="14,2.0000174"
       orientation="-12,0"
       id="guide4070" />
    <sodipodi:guide
       position="14,14.000017"
       orientation="0,-12"
       id="guide4072" />
  </sodipodi:namedview>
  <metadata
     id="metadata7">
    <rdf:RDF>
      <cc:Work
         rdf:about="">
        <dc:format>image/svg+xml</dc:format>
        <dc:type
           rdf:resource="http://purl.org/dc/dcmitype/StillImage" />
        <dc:title />
      </cc:Work>
    </rdf:RDF>
  </metadata>
  <g
     inkscape:label="Capa 1"
     inkscape:groupmode="layer"
     id="layer1"
     transform="translate(0,-1036.3622)">
    <g
       id="g4164"
       transform="matrix(0.33041456,0,0,0.33041456,1.9623858,1038.6839)">
      <g
         id="g4149"
         transform="translate(-0.10468562,0.28141146)">
        <g
           transform="matrix(1.1483543,0,0,1.1483543,-2.2928463,-1.978147)"
           id="g4399">
          <g
             id="g4140"
             style="fill:#4d4d4d;fill-opacity:1">
            <path
               id="path4142"
               d="m 4.8,32.019455 c -0.5,0 -0.9,-0.343969 -1,-0.77393 L 3.1,26 l 8.1,0 13.6,0 8.1,0 -0.7,5.245525 c -0.1,0.429961 -0.5,0.77393 -1,0.77393 z"
               inkscape:connector-curvature="0"
               style="opacity:1;fill:none;fill-opacity:1"
               sodipodi:nodetypes="sccccccss" />
            <g
               id="g4144"
               style="fill:#4d4d4d;fill-opacity:1"
               transform="matrix(1,0,0,0.82171911,0,4.4570224)">
              <path
                 id="path4146"
                 d="m 31.8,27 -0.5,5 -26.5,0 -0.5,-5 6.4,0 14.8,0 6.3,0 M 34,25 24,25 2,25 2.4967786,32.2 c 0.1,1 0.6978671,1.8 1.6978671,1.8 l 27.7106433,0 c 1,0 1.597867,-0.8 1.697867,-1.8 z"
                 inkscape:connector-curvature="0"
                 sodipodi:nodetypes="cccccccccccsscc"
                 style="fill:#ffffff;fill-opacity:1" />
            </g>
          </g>
          <path
             style="fill:#ffffff;fill-opacity:1;stroke:none;stroke-width:0.75886595;stroke-linejoin:round;stroke-miterlimit:10;stroke-opacity:1"
             d="m 3.7382812,1.9472656 c -0.4033396,0 -0.6452128,0.2822073 -0.6855468,0.6855469 l -1.0878906,8.5898435 0.082031,0.404297 3.1445312,0 5.648438,0 2.982422,0 0.242187,-0.404297 -1.089844,-8.5898435 C 12.893941,2.2294729 12.696308,1.9472656 12.292969,1.9472656 Z M 9.4826484,3.6839298 C 10.023019,3.7312989 10.303021,4.0737533 9.6994453,4.4768985 8.321092,5.3974719 7.4751559,5.8419906 6.6564765,7.0901798 6.7893088,6.9982648 6.9464282,6.9154033 7.1291328,6.8577579 8.6492066,6.3783405 10.6494,7.9422412 11.642805,8.890961 9.7794222,7.8131995 8.8105606,7.9519592 6.836164,7.9163516 6.601882,7.9121475 6.4514632,7.8624259 6.3654609,7.7874454 6.461786,8.3498129 6.6553752,8.9426443 7.0178047,9.6780704 6.1371244,8.6242389 4.7104485,6.5265197 5.2931953,5.0452579 5.6186683,4.2174599 6.41969,3.8612682 6.3713203,4.8265079 6.3183256,5.8846826 6.2391909,6.6510254 6.320539,7.4319766 6.7033915,6.067412 7.4937956,4.1185576 8.8791328,3.7425235 9.0940235,3.6841632 9.3025247,3.6681401 9.4826484,3.6839298 Z"
             transform="matrix(2.6355115,0,0,2.6355115,-3.0840923,-4.6413305)"
             id="path4195"
             inkscape:connector-curvature="0"
             sodipodi:nodetypes="sccccccccssscccccccccccs" />
        </g>
      </g>
      <g
         transform="matrix(1.5132505,0,0,1.5132505,7.0729977,-1567.4987)"
         id="layer1-09"
         inkscape:label="Capa 1"
         style="fill:#000000;fill-opacity:1">
        <g
           style="fill:#000000;fill-opacity:1;stroke:#4f96d1;stroke-opacity:1"
           inkscape:label="Capa 1"
           id="layer1-0"
           transform="matrix(0.90537551,0,0,0.90537551,-365.91682,562.06022)" />
        <g
           inkscape:label="Capa 1"
           id="layer1-00"
           transform="translate(-401.01229,510.63371)"
           style="fill:#000000;fill-opacity:1">
          <g
             style="fill:#000000;fill-opacity:1"
             transform="matrix(0.49999726,0,0,0.49999726,233.50954,268.08052)"
             id="g4382" />
        </g>
      </g>
    </g>
    <g
       transform="translate(-415.54483,508.82119)"
       id="layer1-6"
       inkscape:label="Capa 1">
      <g
         transform="translate(400.14523,-508.46478)"
         id="layer1-9"
         inkscape:label="Capa 1">
        <g
           inkscape:label="Capa 1"
           id="layer1-6-2"
           transform="translate(-400.1003,508.43645)">
          <g
             inkscape:label="Capa 1"
             id="layer1-5"
             transform="matrix(0.81923526,0,0,0.81923526,84.164129,91.100876)" />
        </g>
      </g>
    </g>
  </g>
</svg>

<svg xmlns="http://www.w3.org/2000/svg" viewBox="0 0 16 16"><g fill="#fff"><path d="m31.8 27l-.5 5h-26.5l-.5-5h6.4 14.8 6.3m2.2-2h-10-22l.497 7.2c.1 1 .698 1.8 1.698 1.8h27.711c1 0 1.598-.8 1.698-1.8z" transform="matrix(.37943 0 0 .31178 1.17 3.459)"/><path d="m3.738 1.947c-.403 0-.645.282-.686.686l-1.088 8.59.082.404h3.145 5.648 2.982l.242-.404-1.09-8.59c-.081-.403-.278-.686-.682-.686m-2.81 1.737c.54.047.82.39.217.793-1.378.921-2.224 1.365-3.043 2.613.133-.092.29-.175.473-.232 1.52-.479 3.52 1.084 4.514 2.033-1.863-1.078-2.832-.939-4.807-.975-.234-.004-.385-.054-.471-.129.096.562.29 1.155.652 1.891-.881-1.054-2.307-3.152-1.725-4.633.325-.828 1.126-1.184 1.078-.219-.053 1.058-.132 1.825-.051 2.605.383-1.365 1.173-3.313 2.559-3.689.215-.058.423-.074.604-.059" transform="matrix(.99999 0 0 .99999 0 .007)"/></g></svg>
